!!!OTL@@DE: Das Veilchen
!!!COM: Mozart, Wolfgang Amadeus
!!!ODT: 1785
!!!OMD: Allegretto
!!!LYR: Goethe, Wolfgang von
!!!LDT: 1775
!!!OCL: Erk, Ludwig
!!!GCO: Deutscher Liederschatz, Band 1
**kern	**kern	**kern
*staff3	*staff2	*staff1
*Ipiano	*Ipiano	*Ivox
*clefF4	*clefG2	*clefG2
*k[b-e-a-]	*k[b-e-a-]	*k[b-e-a-]
*E-:	*E-:	*E-:
*M2/4	*M2/4	*M2/4
*MM96	*MM96	*MM96
8E-\	8e-/	8r
=1	=1	=1
*	*^	*
(8G\L	8b-/L	2e-\	2r
8E-\	8g/	.	.
8F\	8a-/	.	.
8A-\J)	8cc/J	.	.
=2	=2	=2	=2
8.G\L	(8.b-/L	[4e-\	2r
16F\Jk	16a-/Jk	.	.
8E-\	8g/L)	8e-\]	.
*^	*	*	*
*	*	*v	*v	*
16r	8r	16r	.
16c/	.	(16ee-/Jk	.
=3	=3	=3	=3
*	*	*^	*
&(8B-/L&)	8E-\	8dd/L)	8e-\	2r
16r	8r	16r	8r	.
(16B-/Jk	.	(16dd/Jk	.	.
8A-/L)	8E-\	8cc/L)	8e-\	.
16r	8r	16r	8r	.
16A-/Jk	.	16cc/Jk	.	.
=4	=4	=4	=4	=4
(8.G/L	4E-\	(8.b-/L	[4e-\	2r
16F/Jk	.	16a-/Jk	.	.
8E-/)	8E-\	8g/)	8e-\]	.
*	*	*v	*v	*
8ryy	8r	8r	.
*v	*v	*	*
=5	=5	=5
8r	8r	2r
*	*^	*
(8AA-/ 8A-/L	8d/ (8f/L	4.B-\	.
8GG/ 8G/	8e-/ 8g/	.	.
8FF/) 8F/J	8f/ 8a-/J)	.	.
=6	=6	=6	=6
8GG/ 8G/	8e-/ 8b-/L	8B-\	2r
8r	16r	8r	.
.	([16e-/Jk	.	.
8B-\L	8g/L	8e-\L]	.
8BB-\ 8A-\J	8f/J)	8d\J	.
*	*v	*v	*
=7	=7	=7
*^	*	*
4G/	8E-\L	4e-/	4r
.	8EE-\J	.	.
*v	*v	*	*
4r	8r	8r
.	8e-/	8e-/
=8	=8	=8
*	*^	*
(8G\L	(8b-/L	2e-\	8b-\
8E-\	8g/	.	8g/
8F\	8a-/	.	8a-/
8A-\J)	8cc/J)	.	8cc\
=9	=9	=9	=9
8.G\L	(8.b-/L	[4e-\	8.b-\
16F\Jk	16a-/Jk	.	16a-/
8E-\	8g/)	8e-\]	8g/
*^	*	*	*
16r	8r	16r	8r	16r
16c/	.	(16ee-/	.	16ee-\
=10	=10	=10	=10	=10
&(8B-/L&)	8E-\	8dd/L)	8e-\	8dd\
16r	8r	16r	8r	16r
(16B-/Jk	.	(16dd/Jk	.	16dd\
8A-/L)	8E-\	8cc/L)	8e-\	8cc\
16r	8r	16r	8r	16r
16A-/Jk	.	16cc/Jk	.	16cc\
=11	=11	=11	=11	=11
(8.G/L	4E-\	(8.b-/L	[4e-\	8.b-\
16F/Jk	.	16a-/Jk	.	16a-/
8E-/)	8E-\	8g/)	8e-\]	8g/
*	*	*v	*v	*
8ryy	8r	8r	8r
*v	*v	*	*
=12	=12	=12
8r	8r	8r
*	*^	*
(8AA-/ 8A-/L	8d/ (8f/L	4.B-\	8f/
8GG/ 8G/	8e-/ 8g/	.	8g/
8FF/) 8F/J	8f/ 8a-/J)	.	8a-/
*	*v	*v	*
=13	=13	=13
8GG/ 8G/	8B-/ 8e-/ 8b-/	8.b-\
8r	8r	.
.	.	16e-/
(8BB-/L	(8B-/ 8e-/ 8g/L	8g/L
8BBB-/J)	8A-/) 8d/ 8f/J	8f/J
=14	=14	=14
4EE-/	4G/ 4e-/	4e-/
4r	4r	8r
.	.	8f/
=15	=15	=15
*	*^	*
(4BB-/	[2f/	(4B-\ 4d\	8b-\
.	.	.	8an/
(4FF/)	.	4c\) 4e-\	8g/
.	.	.	8a/
=16	=16	=16	=16
4BBB-/)	4f/]	4B-\ 4d\	8.b-\
.	.	.	16f/
*	*v	*v	*
4r	4r	8f/
.	.	8f/
=17	=17	=17
8BB-/	16d'/LL	8b-\
.	16f'/	.
8r	16d'/	16r
.	16B-'/JJ	16b-\
8F\	16An'/LL	8cc\
.	16e-'/	.
8r	16c'/	16r
.	16A'/JJ	16cc\
=18	=18	=18
8BB-/	16B-'/LL	8dd\
.	16d'/	.
8r	16f'/	16r
.	16b-'/JJ	16dd\
8FF/	8an/	8cc\
8r	8r	8f/
=19	=19	=19
8r	(16F/LL	4.ee-\
.	16An/	.
(8C/L	16c/	.
.	16A/JJ	.
8AAn/	16F/LL	.
.	16c/	.
8FF/J)	16e-/	8cc\
.	16c/JJ)	.
=20	=20	=20
8r	(16F/LL	8dd\
.	16B-/	.
(8BB-/L	16d/	8b-\
.	16B-/JJ	.
8D/	16B-/LL	8b-\
.	16d/	.
8BB-/J)	16f/	16an/LL
.	16d/JJ)	16b-/JJ
=21	=21	=21
8E-\	8g/	8cc\
8r	8r	8r
*	*^	*
4F\	4an/	(4c\ 4e-\	(8.an/L
.	.	.	16b-/Jk)
=22	=22	=22	=22
8BB-/	&(8b-/&)	8d\)	4b-\
*	*v	*v	*
8r	8r	.
4r	8r	4r
.	(16f\LL	.
.	16ff\JJ)	.
*clefG2	*	*
=23	=23	=23
(16F/LL	[4ff\	2r
16f/	.	.
16e-/	.	.
16f/JJ	.	.
16F/LL	16ff\LL]	.
16f/	16ee-\	.
16e-/	(16ee-\	.
16f/JJ	16cc\JJ)	.
=24	=24	=24
(16B-/LL)	16b-\LL	2r
16f/	16dd\	.
16d/	16ff\	.
16f/JJ	16bb-\JJ	.
16B-/LL	16bb-\LL	.
16f/	16aan\	.
16d/	16gg\	.
16f/JJ)	&(16ff\JJ&)	.
=25	=25	=25
(16F/LL	(16een\LL	2r
16f/	16ff\	.
16e-/	16gg\	.
16f/JJ	16ff\JJ	.
16F/LL	16ff'\LL	.
16f/	16een'\	.
16e-/	16ee-\)	.
16f/JJ)	16cc'\JJ	.
=26	=26	=26
8B-/ 8d/	8b-\	2r
8r	8r	.
4r	4r	.
*clefF4	*	*
=27	=27	=27
4EE-/ 4E-/	8r	4b-\
.	8G-/ 8B-/ 8e-/L	.
4r	8G-/ 8B-/ 8e-/	8.g-/
.	8G-/ 8B-/ 8e-/J	.
.	.	16e-/
=28	=28	=28
4FF/ 4F/	8r	(8e-/L
.	8A-/ 8c-/ 8dn/L	8dn/J)
4r	8A-/ 8c-/ 8d/	(8.d/L
.	8A-/ 8c-/ 8d/J	.
.	.	16cc-/Jk)
=29	=29	=29
2DDn/ 2Dn/	8r	4.cc-\
.	8c-/ 8f/ 8a-/L	.
.	8c-/ 8f/ 8a-/	.
.	8c-/ 8f/ 8a-/J	16b-/LL
.	.	16a-/JJ
=30	=30	=30
4EE-/ 4E-/	8B-/ 8e-/ 8g-/L	8g-/
.	(8b-/	8b-\
4r	8a-/	8a-/
.	8g-/J)	8g-/
=31	=31	=31
2D-\ (2c-\	(8f/L	8f/
.	8cc-/	8cc-\
.	8b-/	8b-\
.	8a-/J)	8a-/
=32	=32	=32
&(4G-\&) 4B-\)	8g-/L	8g-/
.	8b-/J	8b-\
4r	[4dd-\	[4dd-\
=33	=33	=33
*^	*	*
(4B-/	2E-\	(8dd-\L]	8dd-\]
.	.	16cc-\L	16cc-\LL
.	.	16b-\JJ	16b-\JJ
4cn/)	.	8a-/L	8a-/
.	.	8g-/J)	(8g-/
*v	*v	*	*
=34	=34	=34
4D-\ 4d-\	4f/ 4a-/	8a-/)
.	.	8a-/
4r	8r	8r
.	8d-/	8d-/
=35	=35	=35
(16D-\LL	(8cc-/L	8cc-\
16c-\	.	.
16A-\	8a-/	8a-/
(16c-\JJ)	.	.
16D-\LL	8g-/	8g-/
16c-\	.	.
16A-\	8f/J)	8f/
16c-\JJ)	.	.
=36	=36	=36
(16G-\LL	(8.g-/L	8.g-/
16d-\	.	.
16B-\	.	.
16d-\JJ)	16a-/Jk	16a-/
(16G-\LL	8b-/L)	8b-\
16d-\	.	.
16B-\	8g-/J	8g-/
(16d-\JJ)	.	.
=37	=37	=37
16D-\LL	8cc-/L	8cc-\
16c-\	.	.
16A-\	8a-/	8a-/
(16c-\JJ)	.	.
16D-\LL	8g-/	8g-/
16c-\	.	.
16A-\	&(8f/J&)	8f/
16c-\JJ)	.	.
=38	=38	=38
(16G-\LL	(8.g-/L	8.g-/
16d-\	.	.
16B-\	.	.
16d-\JJ)	16a-/Jk	16a-/
8G-\	8b-\)	8b-\
8r	8r	16g-/LL
.	.	16cc-/JJ
=39	=39	=39
4DDn/ 4Dn/	8r	4.cc-\
.	(8A-'/ 8c-'/L	.
4r	8c-'/ 8f'/	.
.	8f'/) 8a-'/J	(16f/LL
.	.	16b-/JJ)
=40	=40	=40
4EE-/ 4E-/	8r	4.b-\
.	(8G-'/ 8B-'/L	.
4r	8B-'/ 8e-'/	.
.	8e-'/) 8g-'/J	8b-\
=41	=41	=41
*	*^	*
2CC-/ (2C-/	2E-/ 2e-/	(4A-\	8a-/
.	.	.	8g/
.	.	4An\)	8f/
.	.	.	8e-/
*	*v	*v	*
=42	=42	=42
4BBB-/ 4BB-/)	4F/ 4B-/ &(4d/&)	4dn/
4r	4r	4r
=43	=43	=43
4CC-/ 4C-/	4c-/ 4e-/	2r
4BBB-/ 4BB-/	(8.d-/ 8.f-/L	.
.	16c-/) 16e-/Jk	.
=44	=44	=44
8CC-/ 8C-/	8G-/ 8c-/ 8e-/	8g-/
8r	8r	8r
8GGG-/ 8GG-/	8F-/ 8B-/ 8d-/	8.g-/
8r	8r	.
.	.	16g-/
=45	=45	=45
8CC-/	8E-/ 8G-/ 8c-/	8e-/
8r	8r	16r
.	.	16e-/
4r	4r	8e-/
.	.	8f-/
=46	=46	=46
8r	8r	4g-/
8CC-/ 8C-/L	8c-/ 8e-/L	.
8CC-/ 8C-/	8c-/ 8e-/	4r
8CC-/ 8C-/J	8d-/ 8f-/J	.
=47	=47	=47
4CC-/ 4C-/	4e-/ 4g-/	8r
.	.	8g-/
4r	4r	8g-/
.	.	8g-/
=48	=48	=48
2r	2r	8cc-\
.	.	8cc-\
.	.	8b-\
.	.	8a-/
=49	=49	=49
8BB-/	8d-/ 8f-/ 8gn/	8.gn/
8r	8r	.
.	.	16g/
8r	8r	[4b-\
16r	16r	.
16BBB-/ 16BB-/	16d-/ 16f-/ 16g/	.
=50	=50	=50
8.BB-\ 8.B-\L	8.d-/ 8.g/ 8.b-/L	8.b-\]
16BB-\ 16B-\Jk	16d-/ 16g/ 16b-/Jk	16b-\
8.AA-\ 8.A-\L	8.e-/ 8.a-/ 8.cc-/L	8.cc-\
16AA-\ 16A-\Jk	16e-/ 16a-/ 16cc-/Jk	16cc-\
=51	=51	=51
4GG/ 4G/	4f-/ 4b-/ 4dd-/	8dd-\
.	.	8dd-\
8r	8r	8r
8r	8r	8dd-\
=52	=52	=52
8AA-/	8r	(8dd-\L
8r	8e-/ 8a-/ 8cc-/	8cc-\J)
8BB-/	8r	8r
8r	8e-/ 8g-/ 8b-/	8b-\
=53	=53	=53
8C-/	8r	(8b-/L
8r	8e-/ 8g-/ 8an/	8an/J)
8Cn/	8r	8r
8r	8e-/ 8f/ 8a/	8a/
=54	=54	=54
*	*^	*
4.Dn\	4.f/ (4.a-/	2B-\	8.b-\
.	.	.	16a-/
.	.	.	8a-/
8AA-/	8d/ 8f/)	.	8f/
*	*v	*v	*
=55	=55	=55
8GGn\L	(16B-/LL	8.b-\
.	16e-/	.
8Gn\J	16gn/	.
.	16b-/JJ)	16e-/
8r	(16b-/LL	8e-/
.	16g/	.
8GG/	16e-/	8e-/
.	16B-/JJ)	.
=56	=56	=56
8AA-\L	(16c/LL	8.cc\
.	16f/	.
8A-\J	16a-/	.
.	16cc/JJ)	16f/
8r	(16cc/LL	8f/
.	16a-/	.
8AA-/	16f/	8f/
.	16c/JJ)	.
=57	=57	=57
8AA-\L	(16d/LL	4.dd\
.	16f/	.
8A-\J	16b-/	.
.	16dd/JJ)	.
8r	(16dd/LL	.
.	16b-/	.
8AA-/	16f/	8b-\
.	16d/JJ)	.
=58	=58	=58
8GG/L	(16e-/LL	[4ee-\
.	16g/	.
8GGG/J	16b-/	.
.	16ee-/JJ	.
8AAA-/L	(16ee-/LL)	16ee-\]
.	16cc/	16cc\
8AA-/J	16a-/	16a-/
.	16f/JJ)	16f/
=59	=59	=59
*	*^	*
8BB-/L	4.e-/	(16G\LL	4.e-/
.	.	16B-\	.
8BB-/	.	16G\	.
.	.	(16B-\JJ)	.
8BB-/	.	16G\LL	.
.	.	16B-\	.
8BB-/J	8d/	16A-\	16g/LL
.	.	16B-\JJ)	16f/JJ
*	*v	*v	*
=60	=60	=60
4EE-/	4G/ 4e-/	4e-/
4r	4r	4r
=61	=61	=61
[2BBB-/ [2BB-/	[2F/ [2A-/ [2B-/ [2d/	8r
.	.	8a-/
.	.	8a-/
.	.	8a-/
=62	=62	=62
4BBB-/] 4BB-/]	4F/] 4A-/] 4B-/] 4d/]	8f/
.	.	8f/
4r	4r	4r
=63	=63	=63
8r	8r	8r
*	*^	*
(8AA-/ 8A-/L	8d/ (8f/L	4.B-\	8f/
8GG/ 8G/	8e-/ 8g/	.	8g/
8FF/) 8F/J	8f/ 8a-/J)	.	8a-/
*	*v	*v	*
=64	=64	=64
8GG/ 8G/	8B-/ 8e-/ 8b-/	8.b-\
8r	8r	.
.	.	16e-/
(8BB-/L	(8B-/ 8e-/ 8g/L	8g/L
8BBB-/J)	8A-/) 8d/ 8f/J	8f/J
=65	=65	=65
4EE-/	4G/ 4e-/	4e-/
4r	4r	4r
==	==	==
*-	*-	*-
!!!ENC: Craig Stuart Sapp
!!!END: 2004/06/02/
!!!EFL: 035/651
